X: 30735
T: Ornery Upright, The
R: reel
M: 4/4
K: Gmajor
|:F|G2AG GEDB,|DEGA BAAF|G2G2 EGDB|cABG EDDF|
G2AG GEDB,|DBdB cEEG|(3FGA DE FGAB|(3cBA BA G2G:|
|:g|agfa gdBG|cdeg fdba|gdBG (3cBA Bc|dfaf gefg|
bgfa gdBG|cBce dBcA|(3FGA DE FGAB|(3cBA BA G2G:|

